24x24/panel/yate-tray-notification.svg

<svg xmlns="http://www.w3.org/2000/svg" width="24" height="24" version="1.1">
 <defs>
  <style id="current-color-scheme" type="text/css">
   .ColorScheme-Text { color:#323a41; } .ColorScheme-Highlight { color:#4285f4; } .ColorScheme-NeutralText { color:#ff9800; } .ColorScheme-PositiveText { color:#4caf50; } .ColorScheme-NegativeText { color:#f44336; }
  </style>
 </defs>
 <path style="opacity:0.3;fill:currentColor" class="ColorScheme-Text" d="M 11.601862,4.0019531 C 9.4836397,4.0371311 7.8328135,4.8238158 6.2698314,6.375 4.5804835,8.0515966 3.9721668,9.591331 3.9788158,12.169922 c 0.00246,0.963673 0.093041,1.733104 0.2636719,2.40039 0.2917422,-0.32039 0.6996292,-0.538911 1.1582031,-0.566406 0.6936258,-0.04155 1.3247241,0.366549 1.625,0.947266 a 1.0001,1.0001 0 0 0 0,0.002 l 1.3808594,2.677734 1.0097656,1.951172 c 0.2307444,0.06579 0.4724644,0.144125 0.6718752,0.1875 0.945319,0.205627 1.250138,0.261547 2.326171,0.216797 2.262478,-0.09408 3.794515,-0.727884 5.240235,-2.167969 1.457084,-1.451405 2.184891,-3.196799 2.326172,-5.576171 C 20.233699,7.9824861 17.956892,4.9828678 13.888972,4.2167969 13.06528,4.0616791 12.307937,3.9902273 11.601862,4.0019531 Z M 9.5354564,7 c 0.2656961,0 0.7414346,0.5671789 1.0976566,1.3066406 0.388227,0.8059144 0.384275,1.0499644 -0.01758,1.3144534 -0.53122,0.349638 -0.9687503,0.822979 -0.9687503,1.046875 0,0.115608 0.3358267,0.562297 0.7460933,0.992187 0.670614,0.702688 0.779876,0.889556 1.085938,1.859375 0.191128,0.605625 0.431799,1.135695 0.548828,1.208985 0.164935,0.103292 0.370847,0.04254 0.982422,-0.294922 l 0.246093,-0.136719 c 0.48473,-0.267468 0.538121,-0.364969 0.871094,0.136719 0.189607,0.234578 0.48431,0.72058 0.654297,1.080078 0.368609,0.779549 0.304588,0.958058 -0.449219,1.259766 -1.681004,0.672809 -2.634884,-0.04942 -4.6269526,-3.498047 C 8.0359763,10.385356 7.7125133,9.288067 8.2210033,8.2539062 8.4868163,7.7132951 9.2348444,7 9.5354564,7 Z"/>
 <path style="fill:currentColor" class="ColorScheme-Text" d="M 5.5335033,15 A 0.73531259,0.82233521 0 0 0 5.4612373,15.002 0.73531259,0.82233521 0 0 0 4.863581,15.410203 L 3.4788158,18.087891 2.0979564,20.767578 A 0.73531259,0.82233521 0 0 0 2.7346752,22 h 2.765625 2.765625 A 0.73531259,0.82233521 0 0 0 8.902644,20.767578 L 7.5178783,18.087891 6.137019,15.410156 A 0.73531259,0.82233521 0 0 0 5.5335033,15 Z m -0.5332031,1 h 1 v 3 h -1 z m 0,4 h 1 v 1 h -1 z"/>
</svg>

<svg xmlns="http://www.w3.org/2000/svg" width="24" height="24"><defs><style id="current-color-scheme" type="text/css">.ColorScheme-Text{color:#323a41}</style></defs><path style="opacity:.3;fill:currentColor" class="ColorScheme-Text" d="M11.602 4.002c-2.118.035-3.77.822-5.332 2.373-1.69 1.677-2.298 3.216-2.291 5.795.002.964.093 1.733.263 2.4.292-.32.7-.539 1.159-.566.693-.042 1.324.366 1.625.947a1 1 0 0 0 0 .002l1.38 2.678 1.01 1.951c.231.066.473.144.672.188.946.205 1.25.261 2.326.216 2.263-.094 3.795-.728 5.24-2.168 1.458-1.451 2.185-3.196 2.327-5.576.253-4.26-2.024-7.26-6.092-8.025a11.348 11.348 0 0 0-2.287-.215zM9.535 7c.266 0 .742.567 1.098 1.307.388.806.384 1.05-.017 1.314-.532.35-.97.823-.97 1.047 0 .116.337.562.747.992.67.703.78.89 1.086 1.86.19.605.432 1.135.549 1.209.165.103.37.042.982-.295l.246-.137c.485-.268.538-.365.871.137.19.234.485.72.655 1.08.368.78.304.958-.45 1.26-1.68.672-2.635-.05-4.627-3.499-1.669-2.89-1.992-3.987-1.484-5.021C8.487 7.714 9.235 7 9.535 7z"/><path style="fill:currentColor" class="ColorScheme-Text" d="M5.534 15a.735.822 0 0 0-.073.002.735.822 0 0 0-.597.408l-1.385 2.678-1.381 2.68A.735.822 0 0 0 2.735 22H8.266a.735.822 0 0 0 .637-1.232l-1.385-2.68-1.381-2.678a.735.822 0 0 0-.603-.41zM5 16h1v3H5zm0 4h1v1H5z"/></svg>
